public/images/common/chippo_on.svg

<svg width="130" height="50" viewBox="0 0 130 50" fill="none" xmlns="http://www.w3.org/2000/svg">
<g opacity="0.7">
<path d="M65.59 18C69.1233 17.6733 70.7466 20.34 70.46 26C70.46 26.58 70.2 26.88 69.68 26.89H68.45C68.01 26.89 67.8 26.61 67.8 26.1C68 22.1 67 20.4333 64.8 21.1C64.4583 22.7458 64.2675 24.4195 64.23 26.1C64.23 26.65 63.98 26.93 63.46 26.93H62.27C61.81 26.93 61.58 26.68 61.58 26.18C61.5445 23.0538 62.101 19.9492 63.22 17.03C63.295 16.7841 63.4435 16.567 63.6455 16.4079C63.8475 16.2488 64.0933 16.1553 64.35 16.14H65.25C65.85 16.14 66.07 16.39 65.94 16.87L65.59 18ZM74.18 35.07C74.18 35.63 73.91 35.92 73.38 35.92H62.47C62.3729 35.935 62.2736 35.927 62.1801 35.8968C62.0866 35.8666 62.0015 35.8149 61.9315 35.7459C61.8616 35.677 61.8087 35.5926 61.7772 35.4995C61.7457 35.4064 61.7363 35.3073 61.75 35.21V28.81C61.75 28.27 61.99 28 62.45 28H73.38C73.91 28 74.18 28.25 74.18 28.75V35.07ZM71.55 33.3V30.67H64.25V33.39L71.55 33.3ZM74.18 26.14C74.18 26.65 73.95 26.91 73.48 26.91H72.15C71.66 26.91 71.42 26.64 71.42 26.1V16.45C71.42 15.97 71.64 15.74 72.1 15.74H73.52C73.96 15.74 74.18 15.97 74.18 16.45V26.14Z" fill="#EFCB1B"/>
<path d="M89.48 21.2999C89.97 21.2999 90.21 21.5899 90.21 22.1499V23.6499C90.21 24.2199 89.98 24.4999 89.51 24.4999H88.75V35.1299C88.75 35.6799 88.52 35.9599 88.08 35.9599H86.71C86.26 35.9599 86.03 35.7099 86.03 35.2299V34.7199H76.88C76.36 34.7199 76.09 34.4299 76.09 33.8499V32.6999C76.09 32.0999 76.34 31.8099 76.83 31.8099H79.18V30.6499C77.3666 30.2099 76.4466 28.7799 76.42 26.3599C76.304 25.0371 76.5567 23.708 77.15 22.5199H76.74C76.3 22.5199 76.08 22.1866 76.08 21.5199V20.4199C76.08 19.7299 76.32 19.4199 76.81 19.4199H84.43C84.93 19.4199 85.18 19.7399 85.18 20.4199V21.7599C85.18 22.3099 84.94 22.5899 84.41 22.5899H83.85C84.4295 23.7822 84.6749 25.1093 84.56 26.4299C84.56 28.8966 83.66 30.3333 81.86 30.7399V31.8799H86V16.6099C86 16.0399 86.26 15.7599 86.72 15.7599H88.05C88.49 15.7599 88.72 16.0099 88.72 16.5099V21.2999H89.48ZM78.21 18.5099C77.71 18.5099 77.46 18.1999 77.46 17.5799V16.6299C77.46 16.0499 77.71 15.7599 78.21 15.7599H82.92C83.4 15.7599 83.64 16.0499 83.64 16.6299V17.6299C83.64 18.2099 83.44 18.4999 83.03 18.4999L78.21 18.5099ZM80.46 22.3999C79.58 22.3999 79.13 23.4499 79.13 25.5499C79.13 27.3199 79.6 28.1999 80.53 28.1999C81.46 28.1999 81.86 27.3199 81.86 25.5499C81.86 23.4499 81.4 22.3999 80.46 22.3999V22.3999Z" fill="#EFCB1B"/>
<path d="M97 25.8C96.54 25.8 96.3 25.53 96.29 25.01V16.51C96.29 15.99 96.51 15.74 96.95 15.74H108.54C108.98 15.74 109.19 15.95 109.19 16.47V17.86C109.204 17.9521 109.196 18.0461 109.166 18.1344C109.137 18.2228 109.087 18.3029 109.021 18.3682C108.954 18.4336 108.873 18.4823 108.785 18.5104C108.696 18.5385 108.602 18.5452 108.51 18.53H99.14V19.53H108.14C108.55 19.53 108.76 19.78 108.76 20.32V21.23C108.76 21.72 108.53 21.96 108.07 21.96H99.07V22.96H108.46C108.93 22.96 109.16 23.23 109.16 23.75V25C109.16 25.54 108.92 25.81 108.43 25.81L97 25.8ZM97 29.7C96.54 29.7 96.32 29.45 96.32 28.93V27.7C96.32 27.17 96.56 26.91 97.05 26.91H108.54C109 26.91 109.22 27.16 109.22 27.66V28.91C109.22 29.44 108.97 29.7 108.47 29.7H97ZM97 33.65C96.56 33.65 96.34 33.4 96.34 32.9V31.62C96.34 31.11 96.55 30.86 96.97 30.86H108.54C109.01 30.86 109.24 31.11 109.24 31.6V35.17C109.24 35.68 109.01 35.94 108.54 35.94H107.16C106.72 35.94 106.49 35.69 106.49 35.19V33.65H97Z" fill="#EFCB1B"/>
<path d="M118.25 16.14C118.61 16.14 118.77 16.45 118.72 17.05C118.593 21.4233 117.447 24.63 115.28 26.67C115.081 26.8867 114.84 27.0605 114.572 27.1809C114.304 27.3013 114.014 27.3656 113.72 27.37H112.37C112.02 27.37 111.81 27.27 111.73 27.06C111.65 26.85 111.73 26.61 112.03 26.32C113.054 25.5004 113.892 24.4716 114.487 23.3024C115.082 22.1332 115.42 20.8505 115.48 19.54C115.54 19.19 115.42 19.02 115.14 19.02H111.62C111.24 19.02 111.04 18.78 111.04 18.31V16.87C111.04 16.38 111.24 16.14 111.62 16.14H118.25ZM117.79 28.31C118.743 28.2917 119.695 28.3755 120.63 28.56C121.286 28.6877 121.911 28.9425 122.47 29.31C122.918 29.6165 123.265 30.0476 123.47 30.55C123.68 31.1056 123.782 31.6962 123.77 32.29C123.78 32.8902 123.693 33.4881 123.51 34.06C123.317 34.5744 122.967 35.0152 122.51 35.32C121.958 35.693 121.335 35.9483 120.68 36.07C119.715 36.2559 118.733 36.3397 117.75 36.32C116.8 36.3378 115.852 36.254 114.92 36.07C114.262 35.9425 113.636 35.6841 113.08 35.31C112.632 34.9912 112.285 34.5504 112.08 34.04C111.86 33.4765 111.755 32.8747 111.77 32.27C111.761 31.6797 111.849 31.0919 112.03 30.53C112.206 30.0285 112.535 29.5948 112.97 29.29C113.521 28.9166 114.144 28.6643 114.8 28.55C115.786 28.3696 116.788 28.2892 117.79 28.31V28.31ZM117.71 33.69C118.288 33.6986 118.866 33.6652 119.44 33.59C119.822 33.544 120.196 33.4429 120.55 33.29C120.791 33.1946 120.997 33.0269 121.14 32.81C121.263 32.5977 121.326 32.3555 121.32 32.11C121.325 31.883 121.27 31.6586 121.16 31.46C121.022 31.2474 120.818 31.0859 120.58 31C120.225 30.8539 119.851 30.7596 119.47 30.72C118.876 30.6534 118.278 30.6234 117.68 30.63C117.095 30.6234 116.511 30.6535 115.93 30.72C115.546 30.7617 115.169 30.8559 114.81 31C114.568 31.0888 114.359 31.2493 114.21 31.46C114.089 31.655 114.027 31.8806 114.03 32.11C114.026 32.358 114.095 32.6017 114.23 32.81C114.387 33.0254 114.602 33.1918 114.85 33.29C115.215 33.4402 115.598 33.5411 115.99 33.59C116.56 33.6645 117.135 33.6979 117.71 33.69V33.69ZM123.71 19.83C124.09 19.83 124.28 20.08 124.28 20.57V22.21C124.28 22.73 124.09 22.98 123.71 22.98H122.76V26.65C122.76 27.16 122.52 27.42 122.06 27.42H120.68C120.22 27.42 119.99 27.16 119.99 26.65V16.45C119.975 16.3578 119.982 16.2634 120.01 16.1743C120.038 16.0852 120.087 16.004 120.152 15.937C120.217 15.87 120.297 15.8191 120.385 15.7883C120.473 15.7576 120.567 15.7479 120.66 15.76H122.08C122.53 15.76 122.76 16.01 122.76 16.51V19.83H123.71Z" fill="#EFCB1B"/>
<path opacity="0.7" d="M52.3 19.87V31.19C52.342 31.8505 52.1255 32.5015 51.6963 33.0054C51.2671 33.5092 50.6588 33.8264 50 33.89H9.38997C9.25707 33.9053 9.12286 33.9053 8.98997 33.89V33.89C8.94586 34.5575 9.16687 35.2154 9.60499 35.721C10.0431 36.2265 10.663 36.5388 11.33 36.59H51.89C52.5578 36.5387 53.1786 36.2268 53.6183 35.7216C54.058 35.2164 54.2813 34.5585 54.24 33.89V22.53C54.2676 21.932 54.0904 21.3425 53.7377 20.8589C53.3849 20.3752 52.8778 20.0264 52.3 19.87V19.87Z" fill="#0058A3"/>
<path opacity="0.7" d="M22.22 27.08H19.21V27.72H22.22V27.08Z" fill="#0058A3"/>
<path opacity="0.7" d="M19.66 23.63C19.7819 23.6362 19.9029 23.6063 20.0078 23.544C20.1128 23.4818 20.197 23.3899 20.25 23.28C20.3825 22.9639 20.444 22.6225 20.43 22.28C20.43 21.42 20.18 20.98 19.66 20.98C19.543 20.973 19.4263 20.9994 19.3237 21.056C19.221 21.1127 19.1365 21.1973 19.08 21.3C18.9349 21.6123 18.8729 21.9567 18.9 22.3C18.886 22.6425 18.9475 22.9838 19.08 23.3C19.1351 23.4046 19.219 23.4912 19.3218 23.5497C19.4246 23.6081 19.5419 23.636 19.66 23.63V23.63Z" fill="#0058A3"/>
<path opacity="0.7" d="M30.38 22.44H29.35V25.4H30.38V22.44Z" fill="#0058A3"/>
<path opacity="0.7" d="M28.2299 22.44H27.2V25.4H28.2299V22.44Z" fill="#0058A3"/>
<path opacity="0.7" d="M50.91 17.38L49.62 17.76L49.13 19.32L49.6 19.76L49.82 20.47L49.45 19.91L49.05 19.63L48.77 20.8L48.67 19.63L48.93 18.36L48.36 17.1L47.63 16.92L48.36 16.57L48.8 16.92L49.14 17.39L50.45 16.6C50.1865 16.2801 49.8407 16.0381 49.45 15.9V16L49.58 16.59L49.09 15.85H48.78H8.20997C7.54298 15.9012 6.92312 16.2135 6.485 16.719C6.04687 17.2245 5.82587 17.8825 5.86997 18.55V29.84C5.82587 30.5075 6.04687 31.1654 6.485 31.671C6.92312 32.1765 7.54298 32.4888 8.20997 32.54H48.78C49.447 32.4888 50.0668 32.1765 50.5049 31.671C50.9431 31.1654 51.1641 30.5075 51.12 29.84V18.48C51.1229 18.1031 51.0515 17.7293 50.91 17.38ZM11.6 20.25C11.6 20.02 11.69 19.9 11.87 19.9H12.5V19.71C12.5 19.52 12.57 19.43 12.73 19.43H13.37C13.51 19.43 13.59 19.52 13.59 19.71V19.9H15.27C15.46 19.9 15.55 20 15.55 20.21V20.86C15.55 21.08 15.46 21.18 15.28 21.18H13.28C13.28 21.32 13.2 21.46 13.17 21.59C14.7433 21.2633 15.5266 22.41 15.52 25.03C15.52 25.28 15.43 25.41 15.24 25.41H14.7C14.51 25.41 14.42 25.29 14.42 25.05C14.42 23.21 13.92 22.51 12.92 22.93C12.8458 23.6174 12.8124 24.3086 12.82 25C12.82 25.25 12.72 25.37 12.51 25.37H12C11.81 25.37 11.72 25.25 11.72 25C11.7174 23.7007 11.8651 22.4054 12.16 21.14H11.84C11.68 21.14 11.6 21.04 11.6 20.84V20.25ZM17 28.55C17 28.77 16.92 28.89 16.75 28.89H16.12C15.95 28.89 15.86 28.78 15.86 28.56V27.18H13.67V28.61C13.67 28.8 13.59 28.89 13.45 28.89H12.77C12.61 28.89 12.53 28.78 12.53 28.57V27.18H11.84C11.67 27.18 11.58 27.06 11.58 26.84V26.22C11.58 26 11.67 25.89 11.84 25.88H15.9V20C15.9 19.78 15.99 19.67 16.17 19.67H16.77C16.95 19.67 17.04 19.78 17.04 19.99L17 28.55ZM17.8 22.24C17.7956 21.8614 17.8257 21.4831 17.89 21.11C17.9339 20.8224 18.036 20.5468 18.19 20.3C18.3268 20.0896 18.5212 19.923 18.75 19.82C19.0244 19.7024 19.3217 19.6477 19.62 19.66C19.8637 19.6561 20.1065 19.6898 20.34 19.76C20.546 19.8285 20.7363 19.9373 20.9 20.08C21.0678 20.239 21.1977 20.4339 21.28 20.65C21.3764 20.9162 21.4271 21.1968 21.43 21.48H22.08V20C22.08 19.79 22.2 19.68 22.45 19.68H22.85C22.8988 19.6734 22.9485 19.6781 22.9952 19.6939C23.0419 19.7096 23.0843 19.736 23.1191 19.7708C23.154 19.8057 23.1803 19.8481 23.1961 19.8948C23.2118 19.9414 23.2166 19.9911 23.21 20.04V24.34C23.21 24.6 23.11 24.74 22.89 24.74H22.42C22.19 24.74 22.08 24.6 22.08 24.32V22.88H21.44C21.4269 23.1801 21.3697 23.4766 21.27 23.76C21.1938 23.9884 21.0674 24.1969 20.9 24.37C20.7443 24.5279 20.5519 24.6447 20.34 24.71C20.1071 24.7837 19.8642 24.8208 19.62 24.82C19.3156 24.8266 19.013 24.7722 18.73 24.66C18.5012 24.5561 18.3094 24.3852 18.18 24.17C18.027 23.9272 17.9281 23.6544 17.89 23.37C17.8391 22.9956 17.8223 22.6174 17.84 22.24H17.8ZM23.28 28.47C23.28 28.75 23.16 28.89 22.92 28.89H18.39C18.3498 28.8952 18.3089 28.8909 18.2706 28.8775C18.2324 28.8641 18.1978 28.842 18.1696 28.8128C18.1414 28.7837 18.1204 28.7484 18.1084 28.7097C18.0963 28.671 18.0934 28.63 18.1 28.59V25.59C18.1 25.37 18.2 25.26 18.42 25.26H18.89C18.9341 25.2549 18.9788 25.2601 19.0206 25.275C19.0625 25.29 19.1003 25.3143 19.1312 25.3462C19.1621 25.3781 19.1853 25.4167 19.199 25.4589C19.2126 25.5012 19.2164 25.546 19.21 25.59V26H22.21V25.55C22.21 25.33 22.31 25.22 22.51 25.22H23C23.21 25.22 23.32 25.31 23.32 25.5L23.28 28.47ZM31.47 28.55C31.47 28.77 31.38 28.89 31.2 28.9H26.4C26.19 28.9 26.09 28.76 26.09 28.49V28.05C26.09 27.78 26.21 27.64 26.44 27.64H28.2V26.64H26.44C26.21 26.64 26.1 26.5 26.1 26.23V20.07C26.1 19.8 26.21 19.67 26.44 19.67H26.88C27.1 19.67 27.2 19.8 27.2 20.07V21.22H28.2V20.07C28.2 19.8 28.32 19.67 28.54 19.67H29C29.22 19.67 29.33 19.8 29.33 20.07V21.22H30.33V20.07C30.33 19.8 30.45 19.67 30.68 19.67H31.1C31.32 19.67 31.44 19.8 31.44 20.07V26.22C31.44 26.51 31.33 26.66 31.11 26.66H29.35V27.66H31.2C31.41 27.66 31.51 27.79 31.51 28.06L31.47 28.55ZM33.71 28.55C33.6424 28.6342 33.5549 28.7002 33.4553 28.7421C33.3558 28.784 33.2474 28.8005 33.14 28.79H32.77C32.61 28.79 32.51 28.73 32.48 28.6C32.4689 28.5247 32.4749 28.4479 32.4974 28.3752C32.5199 28.3026 32.5584 28.2359 32.61 28.18C33.7934 26.14 34.3402 23.7929 34.18 21.44C34.18 21.29 34.12 21.22 34 21.22H32.6C32.43 21.22 32.34 21.1 32.34 20.85V20.29C32.34 20.02 32.44 19.89 32.63 19.89H35.12C35.33 19.89 35.44 20.06 35.44 20.38C35.46 24.1933 34.8966 26.9033 33.75 28.51L33.71 28.55ZM38.26 28.55C38.26 28.77 38.16 28.89 37.96 28.89H37.49C37.29 28.89 37.19 28.78 37.19 28.56V23.64H37V28.55C37 28.77 36.9 28.89 36.7 28.89H36.23C36.02 28.89 35.92 28.78 35.92 28.56V20C35.92 19.79 36.01 19.69 36.2 19.69H36.71C36.9 19.69 37 19.8 37 20.02V22.2H37.28V20C37.28 19.79 37.37 19.69 37.55 19.69H38C38.19 19.69 38.29 19.8 38.29 20.02L38.26 28.55ZM40.43 28.48C40.3587 28.5618 40.2688 28.6254 40.1679 28.6654C40.067 28.7054 39.958 28.7207 39.85 28.71H39.43C39.3696 28.7175 39.3086 28.7035 39.2574 28.6707C39.2062 28.6378 39.1682 28.588 39.15 28.53C39.15 28.41 39.15 28.27 39.32 28.1C40.8633 26.2217 41.6322 23.8256 41.47 21.4C41.47 21.25 41.47 21.18 41.3 21.18H39.4C39.23 21.18 39.15 21.06 39.15 20.81V20.25C39.15 19.98 39.24 19.85 39.42 19.85H42.42C42.64 19.85 42.74 20.02 42.74 20.34C42.75 24.1 42 26.82 40.47 28.48H40.43ZM44.43 28.48C44.43 28.76 44.33 28.9 44.14 28.9H43.58C43.38 28.9 43.27 28.76 43.27 28.5V20C43.27 19.79 43.36 19.68 43.54 19.68H44.15C44.33 19.68 44.43 19.79 44.43 20.01V28.48ZM45.71 19.67H46.32C46.57 19.67 46.69 19.89 46.67 20.34L46.51 26.16C46.51 26.41 46.39 26.54 46.21 26.56H45.79C45.6166 26.56 45.5166 26.44 45.49 26.2L45.29 20.34C45.27 19.89 45.41 19.66 45.7 19.67H45.71ZM46.39 28.89H45.66C45.44 28.89 45.33 28.76 45.34 28.49L45.41 27.59C45.41 27.37 45.52 27.25 45.68 27.26H46.43C46.6 27.26 46.7 27.4 46.72 27.67V28.49C46.76 28.77 46.64 28.91 46.38 28.89H46.39Z" fill="#0058A3"/>
<g opacity="0.7">
<path d="M48.53 13.68L48.96 14.68L49.27 14.87L49.12 14.19L49.2 13.41L48.53 13.68Z" fill="white"/>
<path d="M52.93 14.33L51.87 16.51L54.24 15.42V13.95L52.93 14.33Z" fill="white"/>
<path d="M51.87 14.65V15.06L52.27 14.65L52.07 14.31L51.87 14.65Z" fill="white"/>
</g>
<path d="M57.7 23.7199L49.72 20.2L52.77 29.3899L54.76 27.1L57.1 29.7999L58.06 28.7L55.72 26L57.7 23.7199Z" fill="#0058A3"/>
</g>
</svg>

<svg id="Layer_1" data-name="Layer 1" xmlns="http://www.w3.org/2000/svg" viewBox="0 0 130 50"><defs><style>.cls-1{fill:#f8cf11;}.cls-2,.cls-4{fill:#fff;}.cls-2,.cls-3{opacity:0.7;}</style></defs><path class="cls-1" d="M65.59,18q5.3-.49,4.87,8c0,.58-.26.88-.79.89H68.45c-.44,0-.65-.28-.65-.79q.3-6-3-5a27.63,27.63,0,0,0-.57,5c0,.55-.25.83-.76.83H62.27q-.69,0-.69-.75a24.78,24.78,0,0,1,1.64-9.15c.28-.59.65-.89,1.13-.89h.9c.6,0,.82.25.69.73Zm8.59,17.06c0,.57-.27.86-.8.86H62.47a.63.63,0,0,1-.72-.71V28.81c0-.54.24-.81.7-.81H73.38c.53,0,.8.25.8.75Zm-2.63-1.76V30.67h-7.3v2.72Zm2.63-7.16c0,.51-.23.77-.7.77H72.15c-.49,0-.73-.27-.73-.81V16.45c0-.48.22-.71.68-.71h1.42c.44,0,.66.23.66.71Z"/><path class="cls-1" d="M89.48,21.3c.49,0,.73.29.73.85v1.5c0,.57-.23.85-.7.85h-.77V35.13c0,.55-.22.83-.66.83H86.71c-.45,0-.68-.25-.68-.73v-.51H76.88c-.52,0-.79-.29-.79-.87V32.7c0-.6.25-.89.74-.89h2.35V30.65q-2.72-.66-2.76-4.29a7.19,7.19,0,0,1,.73-3.84h-.41q-.66,0-.66-1v-1.1c0-.69.24-1,.73-1h7.61c.51,0,.76.32.76,1v1.34c0,.55-.24.83-.77.83h-.57a7.21,7.21,0,0,1,.72,3.84q0,3.7-2.7,4.31v1.14H86V16.61c0-.57.26-.85.72-.85h1.33q.66,0,.66.75V21.3ZM78.21,18.51q-.75,0-.75-.93v-.95q0-.87.75-.87h4.71q.72,0,.72.87v1c0,.58-.21.87-.61.87Zm2.25,3.89c-.88,0-1.33,1.05-1.33,3.15,0,1.77.47,2.65,1.4,2.65s1.33-.88,1.33-2.65C81.86,23.45,81.4,22.4,80.46,22.4Z"/><path class="cls-1" d="M97,25.8c-.47,0-.71-.27-.72-.79v-8.5c0-.52.23-.77.67-.77h11.59c.43,0,.65.21.65.73v1.39a.6.6,0,0,1-.68.67H99.14v1h9c.41,0,.61.25.61.79v.91c0,.49-.22.73-.68.73h-9v1h9.39c.47,0,.7.27.7.79V25c0,.54-.24.81-.73.81Zm0,3.9c-.46,0-.69-.25-.69-.77V27.7c0-.53.25-.79.74-.79h11.49c.45,0,.68.25.68.75v1.25c0,.53-.25.79-.75.79Zm0,3.95c-.44,0-.67-.25-.67-.75V31.62c0-.51.21-.76.64-.76h11.57c.47,0,.7.25.7.74v3.57c0,.51-.23.77-.7.77h-1.38c-.45,0-.67-.25-.67-.75V33.65Z"/><path class="cls-1" d="M118.24,16.14c.37,0,.53.31.48.91q-.19,6.56-3.45,9.62a2.12,2.12,0,0,1-1.55.7h-1.35c-.35,0-.57-.1-.64-.31s0-.45.3-.74a9.22,9.22,0,0,0,3.45-6.78c.06-.35-.06-.52-.34-.52h-3.52c-.39,0-.58-.24-.58-.71V16.87c0-.48.19-.73.58-.73Zm-.46,12.17a13.28,13.28,0,0,1,2.84.25,5.05,5.05,0,0,1,1.84.75,2.73,2.73,0,0,1,1,1.24,4.66,4.66,0,0,1,.3,1.74,5.23,5.23,0,0,1-.27,1.77,2.6,2.6,0,0,1-.94,1.26,4.85,4.85,0,0,1-1.83.75,14,14,0,0,1-2.94.25,13.21,13.21,0,0,1-2.82-.25,5.13,5.13,0,0,1-1.84-.76,2.87,2.87,0,0,1-1-1.27,4.55,4.55,0,0,1-.31-1.77,5.4,5.4,0,0,1,.26-1.74,2.52,2.52,0,0,1,.93-1.24,4.75,4.75,0,0,1,1.84-.74A14.86,14.86,0,0,1,117.78,28.31Zm-.07,5.38a13.56,13.56,0,0,0,1.73-.1,4.18,4.18,0,0,0,1.11-.3,1.19,1.19,0,0,0,.77-1.18,1.39,1.39,0,0,0-.16-.65,1.16,1.16,0,0,0-.58-.46,4.13,4.13,0,0,0-1.12-.28,14.45,14.45,0,0,0-1.78-.09,13.92,13.92,0,0,0-1.75.09,4.23,4.23,0,0,0-1.12.28,1.27,1.27,0,0,0-.6.46,1.2,1.2,0,0,0-.18.65,1.25,1.25,0,0,0,.2.7,1.36,1.36,0,0,0,.62.48,4.24,4.24,0,0,0,1.13.3A13.8,13.8,0,0,0,117.71,33.69Zm6-13.86c.38,0,.56.25.56.74v1.64c0,.52-.18.77-.56.77h-.95v3.67c0,.51-.24.76-.7.76H120.7c-.45,0-.68-.25-.68-.76V16.45a.6.6,0,0,1,.67-.69h1.41q.69,0,.69.75v3.32Z"/><path class="cls-2" d="M52.3,19.87V31.19A2.55,2.55,0,0,1,50,33.89H9.39a1.75,1.75,0,0,1-.4,0v0a2.56,2.56,0,0,0,2.35,2.7H51.89a2.55,2.55,0,0,0,2.35-2.7V22.53A2.63,2.63,0,0,0,52.3,19.87Z"/><rect class="cls-2" x="19.21" y="27.08" width="3.01" height="0.64"/><path class="cls-2" d="M19.66,23.63a.61.61,0,0,0,.59-.35,2.47,2.47,0,0,0,.19-1c0-.86-.26-1.3-.78-1.3a.62.62,0,0,0-.58.32,2,2,0,0,0-.18,1,2.32,2.32,0,0,0,.19,1A.6.6,0,0,0,19.66,23.63Z"/><rect class="cls-2" x="29.35" y="22.44" width="1.03" height="2.96"/><rect class="cls-2" x="27.2" y="22.44" width="1.03" height="2.96"/><path class="cls-2" d="M50.92,17.38l-1.3.38-.49,1.56.47.44.22.71-.37-.56-.4-.28-.28,1.17-.09-1.17.25-1.27-.57-1.26-.72-.17.72-.36.44.36.34.46,1.31-.79a2.28,2.28,0,0,0-1-.7V16l.13.59-.49-.74v0a1.63,1.63,0,0,0-.31,0H8.22a2.56,2.56,0,0,0-2.35,2.7V29.84a2.55,2.55,0,0,0,2.35,2.7H48.78a2.54,2.54,0,0,0,2.34-2.7V18.48A3.07,3.07,0,0,0,50.92,17.38ZM11.6,20.25c0-.23.09-.35.28-.35h.62v-.19c0-.19.08-.28.23-.28h.64c.15,0,.22.09.22.28v.19h1.68c.19,0,.29.1.29.31v.65c0,.22-.09.32-.28.32h-2c0,.14-.08.28-.11.41,1.57-.33,2.36.82,2.35,3.44,0,.25-.09.38-.28.38h-.54c-.19,0-.28-.12-.28-.36,0-1.84-.49-2.54-1.5-2.12A17.52,17.52,0,0,0,12.82,25c0,.25-.1.37-.31.37H12c-.18,0-.28-.12-.28-.37a16.23,16.23,0,0,1,.45-3.86h-.32c-.17,0-.25-.1-.25-.3Zm5.45,8.3c0,.22-.09.34-.26.34h-.62c-.18,0-.26-.11-.26-.33V27.18H13.67v1.43c0,.19-.07.28-.22.28h-.68c-.16,0-.23-.11-.23-.32V27.18h-.69c-.18,0-.26-.12-.26-.34v-.62c0-.22.08-.33.25-.34h4.07V20c0-.22.09-.33.26-.33h.61c.18,0,.27.11.27.32Zm.79-6.31a6.23,6.23,0,0,1,.09-1.13,2.14,2.14,0,0,1,.3-.81,1.37,1.37,0,0,1,.56-.48,2,2,0,0,1,.87-.16,2.37,2.37,0,0,1,.72.1,1.47,1.47,0,0,1,.56.32,1.54,1.54,0,0,1,.38.57,2.5,2.5,0,0,1,.16.83h.64V20c0-.21.12-.32.37-.32h.4a.32.32,0,0,1,.36.36v4.3c0,.26-.1.4-.32.4h-.47c-.22,0-.34-.14-.34-.42V22.88h-.64a3.05,3.05,0,0,1-.17.88,1.61,1.61,0,0,1-.37.61,1.34,1.34,0,0,1-.56.34,2.27,2.27,0,0,1-.72.11,2.23,2.23,0,0,1-.88-.16,1.27,1.27,0,0,1-.56-.49,2,2,0,0,1-.29-.8A6.23,6.23,0,0,1,17.84,22.24Zm5.48,6.23q0,.42-.36.42H18.4a.27.27,0,0,1-.3-.3v-3a.29.29,0,0,1,.33-.33h.46a.29.29,0,0,1,.32.33V26h3v-.45q0-.33.3-.33H23c.21,0,.32.09.32.28Zm8.19.08c0,.22-.09.34-.27.35H26.41c-.21,0-.32-.14-.32-.41v-.44c0-.27.12-.41.35-.41h1.77v-1H26.44c-.23,0-.34-.14-.34-.41V20.07c0-.27.11-.4.34-.4h.44c.22,0,.32.13.32.4v1.15h1V20.07c0-.27.12-.4.35-.4H29c.22,0,.33.13.33.4v1.15h1V20.07c0-.27.12-.4.35-.4h.42c.23,0,.34.13.34.4v6.15c0,.29-.11.44-.33.44H29.35v1H31.2c.21,0,.31.13.31.4Zm2.24,0a.64.64,0,0,1-.57.24h-.37c-.16,0-.26-.06-.29-.19a.51.51,0,0,1,.13-.42,11.83,11.83,0,0,0,1.57-6.74c0-.14-.06-.22-.18-.22H32.6c-.17,0-.26-.12-.26-.37v-.56c0-.27.1-.4.29-.4h2.5c.2,0,.31.17.31.49Q35.47,26.1,33.75,28.51Zm4.56,0c0,.22-.11.34-.31.34h-.47q-.3,0-.3-.33V23.64H37v4.91c0,.22-.1.34-.3.34h-.47c-.2,0-.31-.11-.31-.33V20c0-.21.1-.31.28-.31h.51c.19,0,.29.11.29.33V22.2h.28V20c0-.21.09-.31.27-.31H38q.3,0,.3.33Zm2.16-.07a.67.67,0,0,1-.58.23h-.41c-.16,0-.25-.06-.28-.18s0-.26.17-.43a9.65,9.65,0,0,0,2.15-6.7c0-.14-.06-.22-.18-.22H39.4c-.17,0-.25-.12-.25-.37v-.56c0-.27.09-.4.27-.4h3c.21,0,.32.17.32.49C42.75,24.1,42,26.82,40.47,28.48Zm4,0c0,.28-.1.42-.29.42h-.56c-.2,0-.3-.14-.3-.4V20c0-.21.08-.32.26-.32h.61c.19,0,.28.11.28.33Zm1.28-8.81h.61c.25,0,.37.22.35.67l-.16,5.82c0,.25-.12.38-.3.4h-.42c-.16,0-.27-.12-.3-.36l-.2-5.86C45.27,19.89,45.41,19.66,45.7,19.67Zm.68,9.22h-.73c-.22,0-.33-.13-.32-.4l.07-.9c0-.22.11-.34.28-.33h.74c.18,0,.27.14.29.41l.06.82C46.77,28.77,46.64,28.91,46.38,28.89Z"/><g class="cls-3"><polygon class="cls-4" points="48.53 13.68 48.96 14.68 49.27 14.87 49.12 14.19 49.2 13.41 48.53 13.68"/><polygon class="cls-4" points="52.93 14.33 51.87 16.51 54.24 15.42 54.24 13.96 52.93 14.33"/><polygon class="cls-4" points="51.87 14.65 51.87 15.06 52.27 14.65 52.07 14.31 51.87 14.65"/></g><polygon class="cls-4" points="57.7 23.72 49.72 20.2 52.77 29.39 54.76 27.1 57.1 29.8 58.06 28.7 55.72 26 57.7 23.72"/></svg>
